!!!!SEGMENT: pl-kk--kk-i-8--037_anonim--veni-electa-mea.krn
!!!cenid: 16xx:1178
!!!COM: Anonim
!!!COM-rismid: pe30004985
!!!CDT:
!!!CNT:
!!!OTL: Veni electa mea
!!!PDT:
!!!AGN: Sacred
!!!SMS-siglum: PL-Kk
!!!SMS-shelfmark: Kk.I.8
!!!SMS-shelfwork: 037 W
!!!SMS-variant:
!!!SMS-altvar:
!!!NIFC-rismid: 1001149242
!!!URL-scan: http://repozytorium.nifc.pl/skany/pl-kk-nut--i-8
!!!ONB-nifc: UWAGA: A (brak), T1 (skan 0038-0039), T2 (0061-0062), B (0084-0085). Następny utwór: Dilexisti justitiam
!!!key:
**kern	**text	**kern	**text	**kern	**text
*part3	*part3	*part2	*part2	*part1	*part1
*staff3	*staff3	*staff2	*staff2	*staff1	*staff1
*Ibass	*	*Itenor	*	*Ivox	*
*I"Basso	*	*I"Tenore	*	*I"Canto	*
*I'B.	*	*I'T.	*	*I'C.	*
*clefF4	*	*clefC4	*	*clefC1	*
*k[]	*	*k[]	*	*k[]	*
*a:	*	*a:	*	*a:	*
*M2/1	*	*M2/1	*	*M2/1	*
*met(C|)	*	*met(C)	*	*	*
=1-	=1-	=1-	=1-	=1-	=1-
!	!	!LO:TX:t=P:problem:all\right:global	!	!LO:TX:t=P:problem:all\right:global	!
0r	.	1A\	Ve-	1a\	Ve-
*	*	*	*	*2\right	*
.	.	2E/	-ni	2ee\	-ni
!	!	!LO:TX:t=P:problem:kreska pseudotaktowa	!	!LO:TX:t=P:problem:kreska pseudotaktowa	!
.	.	2E/	e-	2ee\	e-
=2-	=2-	=2-	=2-	=2-	=2-
!LO:TX:t=P:problem:kreska pseudotaktowa	!	!	!	!	!
1r	.	2F#X/	-lec-	2dd\	-lec-
!	!	!LO:TX:t=P:problem:kreska pseudotaktowa	!	!	!
.	.	2G#X/	-ta	2b\	-ta
*	*	*	*	*lig	*
1A\	Ve-	4A/	me-	1cc\	me-
.	.	4E/	.	.	.
.	.	1A\	.	.	.
=3-	=3-	=3-	=3-	=3-	=3-
*2\right	*	*	*	*	*
2E\	-ni	.	.	1b\	.
2E\	e-	2G#X/	-a	.	.
!LO:TX:t=P:problem:kreska pseudotaktowa	!	!	!	!	!
*	*	*	*	*Xlig	*
!	!	!LO:TX:t=P:problem:kreska pseudotaktowa	!	!	!
2F#X\	-lec-	1A\	.	2a\	-a
!	!	!	!	!LO:TX:t=P:problem:kreska pseudotaktowa	!
2G\	-ta	.	.	2dd\	e-
=4-	=4-	=4-	=4-	=4-	=4-
!LO:TX:t=P:problem:kreska pseudotaktowa	!	!	!	!	!
1A\	me-	2r	.	4cc\	-lec-
.	.	.	.	4b\	-ta
*	*	*2\right	*	*	*
.	.	2A\	Ve-	2.a\	me-
!LO:TX:t=P:problem:kreska pseudotaktowa	!	!	!	!	!
1E\	-a	2e\	-ni	.	.
.	.	.	.	8g#X\L	.
.	.	.	.	8f#X\J	.
!	!	!LO:TX:t=P:problem:kreska pseudotaktowa	!	!LO:TX:t=P:problem:kreska pseudotaktowa	!
.	.	2e\	e-	2g#X\	.
=5-	=5-	=5-	=5-	=5-	=5-
!	!	!	!	!LO:TX:t=P:problem:kreska pseudotaktowa	!
2r	.	2c\	-lec-	1a\	-a
!LO:TX:t=P:problem:kreska pseudotaktowa	!	!	!	!	!
*	*ij	*	*	*	*
2AA/	Ve-	2A\	-ta	.	.
2E\	-ni	2.B\	me-	0r	.
!LO:TX:t=P:problem:kreska pseudotaktowa	!	!	!	!	!
2E\	e-	.	.	.	.
!	!	!LO:TX:t=P:problem:kreska pseudotaktowa	!	!	!
.	.	4c\	.	.	.
=6-	=6-	=6-	=6-	=6-	=6-
2D/	-lec-	4d\	.	.	.
.	.	4A\	.	.	.
!LO:TX:t=P:problem:kreska pseudotaktowa	!	!LO:TX:t=P:problem:kreska pseudotaktowa	!	!	!
2BB/	-ta	2B,\	-a	.	.
*lig	*	*	*	*	*
1C/	me-	2E/	e-	1ee\	Ve-
.	.	2e\	-le-	.	.
=7-	=7-	=7-	=7-	=7-	=7-
1BB/	.	2d\	-cta	2a\	-ni
.	.	2B\	.	2dd\	e-
!	!	!LO:TX:t=P:problem:kreska pseudotaktowa	!	!LO:TX:t=P:problem:kreska pseudotaktowa	!
*Xlig	*	*lig	*	*	*
2AA/	-a	1c\	me-	4a\	-le-
*	*Xij	*	*	*	*
.	.	.	.	4b\	.
!LO:TX:t=P:problem:kreska pseudotaktowa	!	!	!	!	!
2A\	Ve-	.	.	4cc\	.
!	!	!	!	!LO:TX:t=P:problem:kreska pseudotaktowa	!
.	.	.	.	4dd\	.
=8-	=8-	=8-	=8-	=8-	=8-
2G\	-ni	1B\	.	4ee\	.
.	.	.	.	4b\	-cta
2E\	e-	.	.	1ee\	me-
!LO:TX:t=P:problem:kreska pseudotaktowa	!	!	!	!	!
*	*	*Xlig	*	*	*
1F\	-lec-	4A\	.	.	.
.	.	4B\	.	.	.
!	!	!	!	!LO:TX:t=P:problem:kreska pseudotaktowa	!
.	.	4c\	.	2dd\	.
!	!	!LO:SIC:v:t=custos e	!	!	!
.	.	4d\	.	.	.
!	!	!LO:LB:g=original	!	!	!
=9-	=9-	=9-	=9-	=9-	=9-
!	!	!	!	!LO:TX:t=P:problem:kreska pseudotaktowa	!
2E\	-ta	4e\	.	1ee\	-a
.	.	4B\	.	.	.
!LO:TX:t=P:problem:kreska pseudotaktowa	!	!LO:TX:t=P:problem:kreska pseudotaktowa	!	!	!
2C#X/	e-	2.e\	.	.	.
!	!	!	!	!LO:TX:t=P:problem:kreska pseudotaktowa	!
4D/	-le-	.	.	1r	.
4E/	.	8d\L	.	.	.
.	.	8c\J	.	.	.
4F\	.	1d\	.	.	.
!LO:TX:t=P:problem:kreska pseudotaktowa	!	!	!	!	!
4G\	.	.	.	.	.
!LO:LB:g=original	!	!	!	!	!
=10-	=10-	=10-	=10-	=10-	=10-
4A\	.	.	.	2r	.
4E\	-cta	.	.	.	.
!	!	!LO:TX:t=P:problem:kreska pseudotaktowa	!	!LO:TX:t=P:problem:kreska pseudotaktowa	!
1A\	me-	2c\	.	2a\	Ve-
.	.	1B\	-a	2dd\	-ni
!LO:TX:t=P:problem:kreska pseudotaktowa	!	!	!	!	!
2G#X\	-a	.	.	2dd\	e-
=11-	=11-	=11-	=11-	=11-	=11-
2A\	Ve-	2A/	e-	2cc\	-le-
!	!	!LO:TX:t=P:problem:kreska pseudotaktowa	!	!LO:TX:t=P:problem:kreska pseudotaktowa	!
2AA/	-ni	2A/	-le-	2a\	-cta
*	*	*	*	*lig	*
2E\	e-	2G/	.	1b\	me-
!LO:TX:t=P:problem:kreska pseudotaktowa	!	!	!	!	!
2E\	-le-	2E/	-cta	.	.
=12-	=12-	=12-	=12-	=12-	=12-
2C/	-cta	2E/	me-	1.a\	.
2AA/	me-	4D/	.	.	.
.	.	4C/	.	.	.
1BB/	-a	1D/	.	.	.
!LO:TX:t=P:problem:kreska pseudotaktowa	!	!LO:TX:t=P:problem:kreska pseudotaktowa	!	!	!
*	*	*	*	*Xlig	*
!	!	!	!	!LO:TX:t=P:problem:kreska pseudotaktowa	!
.	.	.	.	2g#X\	-a
=13-	=13-	=13-	=13-	=13-	=13-
!	!	!LO:TX:t=P:problem:kreska pseudotaktowa	!	!	!
*	*	*	*	*	*ij
2AA/	e-	1E/	-a	2a\	Ve-
2A\	-le-	.	.	2a\	-ni
2G\	-cta	2r	.	2ee\	e-
!LO:TX:t=P:problem:kreska pseudotaktowa	!	!	!	!LO:TX:t=P:problem:kreska pseudotaktowa	!
2E\	.	2E/	Ve-	2ee\	-le-
=14-	=14-	=14-	=14-	=14-	=14-
1F\	me-	2A/	-ni	2cc\	-cta
!	!	!LO:TX:t=P:problem:kreska pseudotaktowa	!	!	!
.	.	2A/	e-	2a\	me-
2C/	-a	2G/	-le-	4cc\	.
.	.	.	.	8b\L	.
.	.	.	.	8a\J	.
!LO:TX:t=P:problem:kreska pseudotaktowa	!	!LO:TX:t=P:problem:kreska pseudotaktowa	!	!	!
*	*ij	*	*	*	*
2c\	Ve-	2E/	-cta	4g\	.
!	!	!	!	!LO:TX:t=P:problem:kreska pseudotaktowa	!
.	.	.	.	4a\	.
=15-	=15-	=15-	=15-	=15-	=15-
2B\	-ni	4G/	me-	1b\	.
.	.	4A/	.	.	.
2G\	e-	4B\	.	.	.
.	.	8A\L	.	.	.
!	!	!LO:TX:t=P:problem:kreska pseudotaktowa	!	!	!
.	.	8B\J	.	.	.
2.A\	-le-	4c\	.	2a\	-a
*	*	*	*	*	*Xij
.	.	4d\	.	.	.
!	!	!	!	!LO:TX:t=P:problem:kreska pseudotaktowa	!
.	.	2.e\	.	2cc\	e-
8G\L	.	.	.	.	.
!LO:TX:t=P:problem:kreska pseudotaktowa	!	!	!	!	!
8F#X\J	.	.	.	.	.
=16-	=16-	=16-	=16-	=16-	=16-
4E\	.	.	.	4g\	-le-
4F\	.	8d\L	.	4a\	.
.	.	8c\J	.	.	.
4G\	.	4B\	.	4b\	.
!	!	!LO:TX:t=P:problem:kreska pseudotaktowa	!	!	!
4A\	.	4c#X\	.	8a\L	.
!	!	!	!	!LO:TX:t=P:problem:kreska pseudotaktowa	!
.	.	.	.	8g\J	.
*lig	*	*	*	*	*
!	!	!LO:SIC:v:t=custos e	!	!	!
1B\	.	2d#X\	.	2f/	-cta
!	!	!LO:LB:g=original	!	!	!
.	.	1e\	.	(4g/	.
.	.	.	.	4a/)	.
=17-	=17-	=17-	=17-	=17-	=17-
1BB/	.	.	.	1b\	me-
.	.	2d#X\	.	.	.
!	!	!LO:TX:t=P:problem:kreska pseudotaktowa	!	!	!
*Xlig	*	*	*	*	*
!	!	!	!	!LO:LB:g=original	!
!LO:SIC:v:t=custos E	!	!	!	!	!
2E\	-cta	1e\	-a	4b\	-a
*	*Xij	*	*	*	*
.	.	.	.	4b\	Ve-
!LO:LB:g=original	!	!	!	!	!
!LO:TX:t=P:problem:kreska pseudotaktowa	!	!	!	!	!
2E\	Ve-	.	.	4e/	-ni
!	!	!	!	!LO:TX:t=P:problem:kreska pseudotaktowa	!
*	*	*	*	*	*ij
.	.	.	.	4ee\	Ve-
=18-	=18-	=18-	=18-	=18-	=18-
2AA/	-ni	2r	.	2cc\	-ni
*	*	*	*	*	*Xij
2A\	e-	2A/	Ve-	2a\	e-
2G\	-le-	2E/	-ni	2b\	-le-
!LO:TX:t=P:problem:kreska pseudotaktowa	!	!LO:TX:t=P:problem:kreska pseudotaktowa	!	!LO:TX:t=P:problem:kreska pseudotaktowa	!
2E\	-cta	2e\	e-	2cc#X\	-cta
=19-	=19-	=19-	=19-	=19-	=19-
*	*	*	*	*lig	*
4F\	me-	2d\	-le-	1dd\	me-
4E\	.	.	.	.	.
1D\	.	2f\	-cta	.	.
.	.	4e\	me-	[1ee\	.
.	.	4e\	-a	.	.
2C#X/	.	2G/	Ve-	.	.
!LO:TX:t=P:problem:kreska pseudotaktowa	!	!LO:TX:t=P:problem:kreska pseudotaktowa	!	!	!
*	*	*	*	*Xlig	*
=20-	=20-	=20-	=20-	=20-	=20-
1D\	.	2F/	-ni	4ee\]	.
.	.	.	.	8dd\L	.
.	.	.	.	8cc\J	.
!	!	!	!	!LO:TX:t=P:problem:kreska pseudotaktowa	!
.	.	2A/	e-	2dd\	a
2AA/	-a	2A/	-le-	2cc\	e-
!LO:TX:t=P:problem:kreska pseudotaktowa	!	!	!	!	!
2GG#X/	e-	4E/	-cta	2b\	.
!	!	!LO:TX:t=P:problem:kreska pseudotaktowa	!	!	!
.	.	4e\	Ve-	.	.
=21-	=21-	=21-	=21-	=21-	=21-
4AA/	-le-	2c\	-ni	4cc\	-le-
4BB/	.	.	.	4dd\	.
!	!	!	!	!LO:TX:t=P:problem:kreska pseudotaktowa:między nutą a kropką	!
4C/	.	2A\	e-	2.ee\	.
4D/	.	.	.	.	.
2.E\	.	4G/	-le-	.	.
.	.	4A/	.	8dd\L	.
.	.	.	.	8cc\J	.
!	!	!	!	!LO:TX:t=P:problem:kreska pseudotaktowa	!
.	.	4B/	.	2.b\	.
!	!	!LO:TX:t=P:problem:kreska pseudotaktowa	!	!	!
8D\L	.	4c/	.	.	.
!LO:TX:t=P:problem:kreska pseudotaktowa	!	!	!	!	!
8C\J	.	.	.	.	.
=22-	=22-	=22-	=22-	=22-	=22-
2BB/	.	2.d\	.	.	.
.	.	.	.	4cc\	.
!	!	!	!	!LO:TX:t=P:problem:kreska pseudotaktowa	!
2BB/	-cta	.	.	2.dd\	.
.	.	8c\L	.	.	.
!	!	!LO:TX:t=P:problem:kreska pseudotaktowa	!	!	!
.	.	8B\J	.	.	.
2.C/	me-	4A/	.	.	.
.	.	4A/	-cta	8cc\L	.
.	.	.	.	8b\J	.
!	!	!	!	!LO:TX:t=P:problem:kreska pseudotaktowa	!
.	.	2.e\	me-	2cc\	.
!LO:TX:t=P:problem:kreska pseudotaktowa	!	!	!	!	!
4D/	.	.	.	.	.
=23-	=23-	=23-	=23-	=23-	=23-
2E\	.	.	.	2b\	.
.	.	8d\L	.	.	.
.	.	8c\J	.	.	.
2F\	.	1d\	.	4a\	.
.	.	.	.	4b\	-cta
!	!	!	!	!LO:SIC:v:t=custos a	!
0E\	.	.	.	2g#X\	me-
!	!	!	!	!LO:LB:g=original	!
.	.	4A\	.	1a\	.
!	!	!LO:TX:t=P:problem:kreska pseudotaktowa	!	!	!
.	.	4B\	.	.	.
=24-	=24-	=24-	=24-	=24-	=24-
!LO:TX:t=P:problem:kreska pseudotaktowa	!	!	!	!	!
.	.	4c\	.	.	.
.	.	8B\L	.	.	.
.	.	8A\J	.	.	.
!	!	!LO:LB:g=original	!	!	!
!	!	!LO:TX:t=P:problem:kreska pseudotaktowa	!	!LO:TX:t=P:problem:kreska pseudotaktowa	!
.	.	2B\	.	2g#X\	.
!	!	!	!	!LO:TX:t=P:problem:kreska pseudotaktowa	!
2AA/	-a	2c#X,\	-a	1a\	-a
!	!	!LO:TX:t=P:problem:kreska pseudotaktowa	!	!	!
!	!	!LO:N:acc=-	!	!	!
2A\	et	2cn\	et	.	.
=25-	=25-	=25-	=25-	=25-	=25-
2A\	po-	2d\	po-	0r	.
!LO:SIC:v:t=custos f	!	!	!	!	!
2G\	-nam	2e\	-nam	.	.
!LO:LB:g=original	!	!	!	!	!
!LO:TX:t=P:problem:kreska pseudotaktowa	!	!LO:TX:t=P:problem:kreska pseudotaktowa	!	!	!
1F\	in	1f\	in	.	.
=26-	=26-	=26-	=26-	=26-	=26-
2C/	te	2e,\	te	2r	.
!	!	!	!	!LO:TX:t=P:problem:kreska pseudotaktowa	!
1c\	Thro-	1c\	Thro-	2g\	et
.	.	.	.	2a\	po-
!LO:TX:t=P:problem:kreska pseudotaktowa	!	!LO:TX:t=P:problem:kreska pseudotaktowa	!	!	!
2B\	.	2d\	.	2b\	-nam
=27-	=27-	=27-	=27-	=27-	=27-
!	!	!	!	!LO:TX:t=P:problem:kreska pseudotaktowa	!
1A\	-nu(m)	2e\	-nu(m)	1cc\	in-
.	.	4d\	me-	.	.
.	.	4c\	.	.	.
2G\	me-	2d,\	-um	2b\	-te
!LO:TX:t=P:problem:kreska pseudotaktowa	!	!LO:TX:t=P:problem:kreska pseudotaktowa	!	!	!
*	*	*	*ij	*	*
2G\	-u(m)	2B\	et	(4g\	Thro-
.	.	.	.	4a\	.
=28-	=28-	=28-	=28-	=28-	=28-
*	*ij	*	*	*	*
2G\	in	2G/	po-	4b\)	.
.	.	.	.	4cc\	.
2F\	te	2A/	-nam	1dd\	-num
!LO:TX:t=P:problem:kreska pseudotaktowa	!	!	!	!	!
1E\	Thr-	2B/	in	.	.
!	!	!	!	!LO:TX:t=P:problem:kreska pseudotaktowa	!
.	.	4A/	te	2cc#X\	me-
!	!	!LO:TX:t=P:problem:kreska pseudotaktowa	!	!	!
.	.	4G/	.	.	.
=29-	=29-	=29-	=29-	=29-	=29-
2D/	-num	2A/	Thro-	2dd\	-um
1D\	me-	2A/	-num	2a\	et
.	.	2G/	me-	2b\	po-
!LO:TX:t=P:problem:kreska pseudotaktowa	!	!LO:TX:t=P:problem:kreska pseudotaktowa	!	!LO:TX:t=P:problem:kreska pseudotaktowa	!
2C/	-um	2F#X/	.	2cc\	-na(m)
*	*Xij	*	*	*	*
=30-	=30-	=30-	=30-	=30-	=30-
1BB/	me-	1B\	.	1dd\	in
4AA/	.	2E/	-um	2cc\	te
*	*	*	*Xij	*	*
4BB/	.	.	.	.	.
!	!	!LO:TX:t=P:problem:kreska pseudotaktowa: między nutą a kropką	!	!	!
4C/	.	2.e\	Thro-	4.cc\	Thro-
!LO:TX:t=P:problem:kreska pseudotaktowa	!	!	!	!	!
4D/	.	.	.	.	.
!	!	!	!	!LO:TX:t=P:problem:kreska pseudotaktowa	!
.	.	.	.	8cc\	.
=31-	=31-	=31-	=31-	=31-	=31-
4E\	.	.	.	4b\	-nu(m)
4F\	.	4e\	-nu(m)	4a\	me-
4G\	.	4B\	me-	4b\	.
!	!	!LO:TX:t=P:problem:kreska pseudotaktowa	!	!	!
4A\	.	4c#X\	.	8a\L	.
.	.	.	.	8g\J	.
1B\	.	4d#X\	.	2f#X/	.
.	.	2e\	.	.	.
!	!	!	!	!LO:TX:t=P:problem:kreska pseudotaktowa	!
!	!	!	!	!LO:SIC:v:t=custos b	!
.	.	.	.	2b\	.
.	.	4d#X\	.	.	.
!	!	!LO:LB:g=original	!	!LO:LB:g=original	!
=32-	=32-	=32-	=32-	=32-	=32-
!	!	!LO:TX:t=P:problem:kreska pseudotaktowa	!	!	!
2E\	-um	1e\	-um	2b\	-um
1A\	Qui-	.	.	1cc#X\	Qui-
.	.	0r	.	.	.
!LO:TX:t=P:problem:kreska pseudotaktowa	!	!	!	!LO:TX:t=P:problem:kreska pseudotaktowa	!
2F#X\	-a	.	.	2dd\	-a
=33-	=33-	=33-	=33-	=33-	=33-
2.G\	con-	.	.	2.b\	con-
!LO:TX:t=P:problem:kreska pseudotaktowa	!	!	!	!	!
4F\	-cu-	.	.	4a\	-cu-
!	!	!LO:TX:t=P:problem:kreska pseudotaktowa	!	!	!
(2E\	-pi-	1r	.	2b\	-pi-
2A\)	-vit	.	.	2cc#X\	-vit
=34-	=34-	=34-	=34-	=34-	=34-
!LO:TX:t=P:problem:kreska pseudotaktowa	!	!	!	!	!
1D\	REx	2r	.	2dd\	Rex
*	*	*	*	*	*ij
.	.	1d\	Qui-	1a\	Qui-
00r	.	.	.	.	.
!	!	!LO:TX:t=P:problem:kreska pseudotaktowa	!	!LO:TX:t=P:problem:kreska pseudotaktowa	!
.	.	2c#X\	-a	2a\	-a
=35-	=35-	=35-	=35-	=35-	=35-
.	.	2.d\	con-	2.a\	con-
.	.	4c\	-cu-	4a\	-cu-
.	.	2B\	-pi-	2dd\	-pi-
!	!	!LO:TX:t=P:problem:kreska pseudotaktowa	!	!LO:TX:t=P:problem:kreska pseudotaktowa	!
.	.	2e\	.	2b\	-vit
=36-	=36-	=36-	=36-	=36-	=36-
.	.	2A,\	-vit	2cc\	Rex
*	*	*	*	*	*Xij
.	.	4A\	ſpe-	2.cc\	ſpe-
!	!	!LO:TX:t=P:problem:kreska pseudotaktowa	!	!	!
.	.	4B\	.	.	.
00r	.	2.c\	.	.	.
.	.	.	.	8b\L	.
.	.	.	.	8a\J	.
.	.	.	.	4g\	.
!	!	!	!	!LO:TX:t=P:problem:kreska pseudotaktowa	!
.	.	8B\L	.	4a\	.
.	.	8A\J	.	.	.
=37-	=37-	=37-	=37-	=37-	=37-
.	.	4G/	.	4b\	.
.	.	4A/	.	4cc\	.
.	.	4B/	.	4dd\	.
!	!	!LO:TX:t=P:problem:kreska pseudotaktowa	!	!	!
.	.	4c/	.	8cc\L	.
!	!	!	!	!LO:TX:t=P:problem:kreska pseudotaktowa	!
.	.	.	.	8b\J	.
.	.	4.d\	.	4a\	.
.	.	.	.	4b\	-ci-
.	.	8d\	-ci-	.	.
!	!	!LO:TX:t=P:problem:kreska pseudotaktowa	!	!	!
.	.	2A\	-em	2cc\	-em
=38-	=38-	=38-	=38-	=38-	=38-
*	*	*lig	*	*	*
.	.	1c\	tu-	2.g/	tu-
.	.	.	.	4a\	.
!LO:LB:g=original	!	!	!	!	!
1r	.	1B\	.	4b\	.
.	.	.	.	8a\L	.
!	!	!	!	!LO:TX:t=P:problem:kreska pseudotaktowa	!
!	!	!	!	!LO:SIC:v:t=custos f#	!
.	.	.	.	8g\J	.
!	!	!	!	!LO:LB:g=original	!
.	.	.	.	2f#X/	.
*	*	*Xlig	*	*	*
=39-	=39-	=39-	=39-	=39-	=39-
2r	.	2E,/	-am	2g#X/	-am
*	*ij	*	*	*	*
1E\	Qui-	1B\	Qui-	1b\	qui-
!LO:TX:t=P:problem:kreska pseudotaktowa	!	!LO:TX:t=P:problem:kreska pseudotaktowa	!	!LO:TX:t=P:problem:kreska pseudotaktowa	!
2C#X/	-a	2e\	-a	2a\	-a
=40-	=40-	=40-	=40-	=40-	=40-
2.D/	con-	2.A/	con-	2.a\	con-
4C/	-cu-	4A/	-cu-	4a\	-cu-
2BB/	-pi-	2d\	-pi-	2b\	-pi-
!LO:TX:t=P:problem:kreska pseudotaktowa	!	!	!	!LO:TX:t=P:problem:kreska pseudotaktowa	!
2E\	-vit	2B\	-vit	2b\	-vit
=41-	=41-	=41-	=41-	=41-	=41-
!	!	!LO:SIC:v:t=custos cn	!	!	!
2AA/	Rex	2c#X\	Rex	2cc\	Rex
*	*Xij	*	*	*	*
!	!	!LO:LB:g=original	!	!	!
!	!	!LO:N:acc=-	!	!	!
4AA/	ſpe-	4cn\	ſpe-	4a\	ſpe-
!LO:TX:t=P:problem:kreska pseudotaktowa	!	!LO:TX:t=P:problem:kreska pseudotaktowa	!	!	!
4BB/	.	4d\	.	8g\L	.
!	!	!	!	!LO:TX:t=P:problem:kreska pseudotaktowa	!
.	.	.	.	8f\J	.
2.C/	-ci-	2.e\	.	4e/	.
.	.	.	.	4f#X/	.
.	.	.	.	2.g/	.
4C/	-em	8d\L	.	.	.
!	!	!LO:TX:t=P:problem:kreska pseudotaktowa	!	!	!
.	.	8c\J	.	.	.
=42-	=42-	=42-	=42-	=42-	=42-
2GG/	ſpe-	4B\	.	.	.
.	.	4c\	.	8f/L	.
.	.	.	.	8e/J	.
4BB/	.	2.d\	.	4d/	.
!LO:TX:t=P:problem:kreska pseudotaktowa	!	!	!	!LO:TX:t=P:problem:kreska pseudotaktowa	!
4C/	.	.	.	4e/	.
2.D/	.	.	.	4f/	.
.	.	8c\L	.	4g/	.
.	.	8B\J	.	.	.
.	.	4.A/	.	4a\	.
!	!	!	!	!LO:TX:t=P:problem:kreska pseudotaktowa	!
8C/L	.	.	.	4b\	.
!LO:TX:t=P:problem:kreska pseudotaktowa	!	!LO:TX:t=P:problem:kreska pseudotaktowa	!	!	!
8BB/J	.	8A/	-ci-	.	.
=43-	=43-	=43-	=43-	=43-	=43-
4AA/	.	4A/	-em	2.cc\	.
4BB/	.	2e\	ſpe-	.	.
4C/	.	.	.	.	.
!LO:TX:t=P:problem:kreska pseudotaktowa	!	!	!	!	!
4D/	.	8d\L	.	8b\L	.
!	!	!LO:TX:t=P:problem:kreska pseudotaktowa	!	!	!
.	.	8c\J	.	8a\J	.
4.E\	.	4.B\	.	4.g#X\	.
8E\	-ci-	8B\	-ci-	8g#\	-ci-
!LO:TX:t=P:problem:kreska pseudotaktowa	!	!LO:TX:t=P:problem:kreska pseudotaktowa	!	!	!
2C/	-em	2c\	-em	2a\	-em
=44-	=44-	=44-	=44-	=44-	=44-
*lig	*	*	*	*	*
1D\	tu-	2A\	tu-	4f#X/	tu-
.	.	.	.	4g#X/	.
.	.	4d\	.	1a\	.
!	!	!LO:TX:t=P:problem:kreska pseudotaktowa	!	!	!
.	.	4c\	.	.	.
1E\	.	4B\	.	.	.
.	.	4A\	.	.	.
.	.	2B\	.	2g#X\	.
*Xlig	*	*	*	*	*
=45-	=45-	=45-	=45-	=45-	=45-
1AA/;	-am	1c#X\;<	-am	1a\	-am
!	!	!	!	!LO:LB:g=original	!
=46||-	=46||-	=46||-	=46||-	=46||-	=46||-
*M3/1	*	*M3/1	*	*M3/1	*
1.A\	ſpe-	1.c\	ſpe-	1.a\	Spe-
2A\	-ci-	2c\	-ci-	2a\	-ci-
!LO:SIC:v:t=custos A	!	!LO:TX:t=P:problem:kreska pseudotaktowa	!	!LO:TX:t=P:problem:kreska pseudotaktowa	!
1E\	-e	1B\	-e	1g#X\	-e
!LO:LB:g=original	!	!	!	!	!
=47-	=47-	=47-	=47-	=47-	=47-
0A\	tu-	0c\	tu-	0a\	tu-
!LO:TX:t=P:problem:kreska pseudotaktowa	!	!LO:TX:t=P:problem:kreska pseudotaktowa	!	!LO:TX:t=P:problem:kreska pseudotaktowa	!
1A\	-a	1c\	-a	1a\	-a(m)
!	!	!LO:LB:g=original	!	!	!
=48-	=48-	=48-	=48-	=48-	=48-
*	*	*	*	*	*ij
1.E\	ſpe-	1.e\	ſpe-	1.b\	spe-
2E\	-ci-	2e\	-ci-	2b\	-ci-
!LO:TX:t=P:problem:kreska pseudotaktowa	!	!LO:TX:t=P:problem:kreska pseudotaktowa	!	!LO:TX:t=P:problem:kreska pseudotaktowa	!
1BB/	-e	1d#X\	-e	1b\	-e
=49-	=49-	=49-	=49-	=49-	=49-
0E\	tu-	0e\	tu-	0b\	tu-
!LO:TX:t=P:problem:kreska pseudotaktowa	!	!LO:TX:t=P:problem:kreska pseudotaktowa	!	!LO:TX:t=P:problem:kreska pseudotaktowa	!
1E\	-a	1e\	-a	1b\	-am
*	*	*	*	*	*Xij
=50-	=50-	=50-	=50-	=50-	=50-
1C/	et	1e\	et	1cc\	et
1C/	pul-	1e\	pul-	1cc\	pul-
!LO:TX:t=P:problem:kreska pseudotaktowa	!	!LO:TX:t=P:problem:kreska pseudotaktowa	!	!LO:TX:t=P:problem:kreska pseudotaktowa	!
1BB/	-chri-	1d\	-chri-	1dd\	-chri-
=51-	=51-	=51-	=51-	=51-	=51-
1.C/	-tu-	1.e\	-tu-	1.cc\	-tu-
2D\	-di-	2e\	-di-	2cc\	-di-
!LO:TX:t=P:problem:kreska pseudotaktowa	!	!LO:TX:t=P:problem:kreska pseudotaktowa	!	!LO:TX:t=P:problem:kreska pseudotaktowa	!
1E\	-ne	1B\	-ne	1b\	-ne
=52-	=52-	=52-	=52-	=52-	=52-
1C/	tu-	1e\	tu-	2cc\	tu-
.	.	.	.	2b\	.
!LO:TX:t=P:problem:kreska pseudotaktowa	!	!	!	!	!
0D\	.	0d\	.	2a\	.
.	.	.	.	2g\	.
!	!	!	!	!LO:TX:t=P:problem:kreska pseudotaktowa	!
.	.	.	.	1a\	.
=53-	=53-	=53-	=53-	=53-	=53-
0GG/	-a	0d\,	-a	0b\	-a
!LO:TX:t=P:problem:kreska pseudotaktowa	!	!LO:TX:t=P:problem:kreska pseudotaktowa	!	!LO:TX:t=P:problem:kreska pseudotaktowa	!
1G\	in-	1d\	in-	1b\	in-
=54-	=54-	=54-	=54-	=54-	=54-
0D\	-ten-	0d\	-ten-	0a\	-ten-
!	!	!	!	!LO:TX:t=P:problem:kreska pseudotaktowa	!
!LO:TX:t=P:problem:kreska pseudotaktowa	!	!LO:TX:t=P:problem:kreska pseudotaktowa	!	!LO:SIC:v:t=custos a	!
1D\	-de	1d\	-de	1a\	-de
!	!	!	!	!LO:PB:g=original	!
=55-	=55-	=55-	=55-	=55-	=55-
1.A\	pro-	1.c#X\	pro-	1.a\	pro-
2A\	-ſpe-	2c#\	-ſpe-	2a\	-ſpe-
!LO:TX:t=P:problem:kreska pseudotaktowa	!	!LO:TX:t=P:problem:kreska pseudotaktowa	!	!LO:TX:t=P:problem:kreska pseudotaktowa	!
1A\	-re	1c#\	-re	1a\	-re
=56-	=56-	=56-	=56-	=56-	=56-
1r	.	1r	.	1r	.
1r	.	1r	.	1r	.
!	!	!LO:N:acc=-	!	!LO:TX:t=P:problem:kreska pseudotaktowa	!
*	*ij	*	*ij	*	*ij
1A\	in-	1cn\	in-	1a\	pro-
=57-	=57-	=57-	=57-	=57-	=57-
0E\	-ten-	0e\	-ten-	0b\	-ſpe-
!LO:TX:t=P:problem:kreska pseudotaktowa	!	!LO:TX:t=P:problem:kreska pseudotaktowa	!	!LO:TX:t=P:problem:kreska pseudotaktowa	!
1E\	-de	1e\	-de	1b\	-re
=58-	=58-	=58-	=58-	=58-	=58-
1.A\	pro-	1.c#X\	pro-	1.a\	pro-
2A\	-ſpe-	2c#\	-spe-	2a\	-ſpe-
!	!	!LO:TX:t=P:problem:kreska pseudotaktowa	!	!LO:TX:t=P:problem:kreska pseudotaktowa	!
1A\	-re	1c#\	-re	1a\	-re
*	*Xij	*	*Xij	*	*Xij
!LO:LB:g=original	!	!LO:PB:g=original	!	!	!
=59-	=59-	=59-	=59-	=59-	=59-
1D\	pro-	1d\	pro-	[1f#X/	pro-
*	*	*2\left	*	*	*
(2D\	-ce-	2d\	-ce-	2f#/]	.
2E\)	.	4c\	.	2g/	-ce-
.	.	4B\	.	.	.
*	*	*2\right	*	*	*
2F#X\	-de	2A\	-de	2a\	-de
!LO:TX:t=P:problem:kreska pseudotaktowa	!	!LO:TX:t=P:problem:kreska pseudotaktowa	!	!LO:TX:t=P:problem:kreska pseudotaktowa	!
2F#\	et	2d\	et	2a\	et
=60-	=60-	=60-	=60-	=60-	=60-
1.G\	re-	0B\	re-	1.b\	re-
2F\	.	.	.	2a\	.
!	!	!LO:TX:t=P:problem:kreska pseudotaktowa	!	!	!
2E\	.	1B\	-gna	2g/	.
!LO:TX:t=P:problem:kreska pseudotaktowa	!	!	!	!LO:TX:t=P:problem:kreska pseudotaktowa	!
2D\	.	.	.	2f#X/	.
=61-	=61-	=61-	=61-	=61-	=61-
!	!	!LO:TX:t=2	!	!	!
1C/	.	00.r	.	1g\	-gna
1C/	-gna	.	.	1g\	.
!	!	!	!	!LO:TX:t=P:problem:kreska pseudotaktowa	!
1r	.	.	.	1r	.
=62-	=62-	=62-	=62-	=62-	=62-
*	*	*	*	*	*ij
1G\	pro-	.	.	1b\	pro-
*	*	*	*	*2\left	*
(2G\	-ce-	.	.	(2b\	-ce-
*	*	*	*	*2\right	*
2A\)	.	.	.	2cc\)	.
2B\	-de	.	.	2dd\	-de
!LO:TX:t=P:problem:kreska pseudotaktowa	!	!	!	!LO:TX:t=P:problem:kreska pseudotaktowa	!
2B\	et	.	.	2dd\	et
=63-	=63-	=63-	=63-	=63-	=63-
1.c\	re-	1c\	pro-	1.ee\	re-
*	*	*2\left	*	*	*
.	.	(2c\	-ce-	.	.
*	*	*2\right	*	*	*
2B\	.	2d\)	.	2dd\	.
2A\	.	2e\	-de	2cc\	.
!	!	!	!	!LO:TX:t=P:problem:kreska pseudotaktowa	!
!LO:TX:t=P:problem:kreska pseudotaktowa	!	!LO:TX:t=P:problem:kreska pseudotaktowa	!	!LO:SIC:v:t=custos a	!
2G\	.	2e\	et	2b\	.
!	!	!	!	!LO:LB:g=original	!
=64-	=64-	=64-	=64-	=64-	=64-
1F\	.	1.f\	re-	1a\	-gna
1F\	-gna	.	.	1a\	.
.	.	2e\	.	.	.
!LO:TX:t=P:problem:kreska pseudotaktowa	!	!	!	!LO:TX:t=P:problem:kreska pseudotaktowa	!
1F\	et	2d\	.	1a\	et
!	!	!LO:TX:t=P:problem:kreska pseudotaktowa	!	!	!
.	.	2c\	.	.	.
=65-	=65-	=65-	=65-	=65-	=65-
1.G\	re-	1B\	.	1.b\	re-
.	.	1B\	-gna	.	.
2F\	.	.	.	2a/	.
2E\	.	1r	.	2g/	.
!LO:TX:t=P:problem:kreska pseudotaktowa	!	!	!	!LO:TX:t=P:problem:kreska pseudotaktowa	!
2D\	.	.	.	2f#X/	.
=66-	=66-	=66-	=66-	=66-	=66-
*	*	*	*ij	*	*
1C/	.	1E/	pro-	1g\	-gna
1C/	-gna	(2E/	-ce-	1g\	.
.	.	2F/)	.	.	.
!LO:TX:t=P:problem:kreska pseudotaktowa	!	!	!	!LO:TX:t=P:problem:kreska pseudotaktowa	!
1r	.	2G/	-de	1r	.
!	!	!LO:TX:t=P:problem:kreska pseudotaktowa	!	!	!
.	.	2G/	et	.	.
=67-	=67-	=67-	=67-	=67-	=67-
!	!	!	!	!LO:TX:t=P:problem:to ma chyba być pauza całotaktowa (3/1)	!
1.AA/	pro-	1.A\	re-	0.r	.
2BB/	ſpe-	2G/	.	.	.
1C#X/	-re	2F/	-gna	.	.
!	!	!LO:TX:t=P:problem:kreska pseudotaktowa	!	!	!
.	.	2E/	pro-	.	.
!LO:PB:g=original	!	!	!	!	!
=68-	=68-	=68-	=68-	=68-	=68-
1D\	pro-	1D/	-ce-	[1f#X/	pro-
(2D\	-ce-	1D/	-de	2f#/]	-ce-
2E\)	.	.	.	2g/	.
!	!	!LO:TX:t=P:problem:kreska pseudotaktowa	!	!	!
2F#X\	-de	1r	.	2a\	-de
!LO:TX:t=P:problem:kreska pseudotaktowa	!	!	!	!LO:TX:t=P:problem:kreska pseudotaktowa	!
2F#\	et	.	.	2a\	.
=69-	=69-	=69-	=69-	=69-	=69-
1.G\	re-	1B\	et	1.b\	et
*	*	*2\left	*	*	*
.	.	(2B\	re-	.	.
*	*	*2\right	*	*	*
2F\	.	2c\)	.	2a\	re-
2E\	.	2d\	.	2g/	.
!LO:TX:t=P:problem:kreska pseudotaktowa	!	!	!	!LO:TX:t=P:problem:kreska pseudotaktowa	!
2D\	.	2d\	.	2f#X/	.
!	!	!LO:LB:g=original	!	!	!
=70-	=70-	=70-	=70-	=70-	=70-
1.C/	.	1.e\	.	1e/	-gna
.	.	.	.	1e/	.
2D/	.	2d\	.	.	.
!	!	!	!	!LO:TX:t=P:problem:kreska pseudotaktowa	!
2E/	.	2c\	.	1r	.
!LO:TX:t=P:problem:kreska pseudotaktowa	!	!LO:TX:t=P:problem:kreska pseudotaktowa	!	!	!
2C/	.	2B\	.	.	.
=71-	=71-	=71-	=71-	=71-	=71-
1.F\	.	1A\	-gna	1a\	pro-
*	*	*	*Xij	*2\left	*
.	.	1A\	.	(2a\	-ce-
*	*	*	*	*2\right	*
2G\	.	.	.	2b\)	.
!	!	!LO:TX:t=P:problem:kreska pseudotaktowa	!	!	!
2F\	.	1A\	et	2a\	-de
!LO:TX:t=P:problem:kreska pseudotaktowa	!	!	!	!LO:TX:t=P:problem:kreska pseudotaktowa	!
2E\	.	.	.	2g\	et
=72-	=72-	=72-	=72-	=72-	=72-
1.D\	.	1.d\	re-	0f#X/	re-
2E\	.	2c\	.	.	.
!	!	!	!	!LO:TX:t=P:problem:kreska pseudotaktowa	!
2F\	.	2d\	.	1f#/	-gna
*	*	*	*	*	*Xij
!LO:TX:t=P:problem:kreska pseudotaktowa	!	!LO:TX:t=P:problem:kreska pseudotaktowa	!	!	!
2D\	.	2c\	.	.	.
=73-	=73-	=73-	=73-	=73-	=73-
1.G\	.	1.B\	.	1g\	pro-
.	.	.	.	1g\	-ce-
2G\	-gna	2c\	.	.	.
!LO:TX:t=P:problem:kreska pseudotaktowa	!	!	!	!LO:SIC:v:t=custos g	!
1F\	et	2d\	.	1a\	-de
.	.	2c\	.	.	.
!	!	!	!	!LO:LB:g=original	!
=74-	=74-	=74-	=74-	=74-	=74-
*lig	*	*	*	*	*
1G\	re-	1c\	.	1g\	et
*	*	*	*	*lig	*
1E\	.	1e\	.	1g\	re-
!LO:TX:t=P:problem:kreska pseudotaktowa	!	!	!	!	!
1A\	.	1c#X\	.	1a\	.
*Xlig	*	*	*	*Xlig	*
=75-	=75-	=75-	=75-	=75-	=75-
0.D\	-gna	0.d\	-gna	0.a\;<	-gna
=76||-	=76||-	=76||-	=76||-	=76||-	=76||-
*M2/1	*	*M2/1	*	*M2/1	*
*	*	*met(C)	*	*met(C)	*
4r	.	4r	.	4r	.
2BB/	Pro-	2d#X\	Pro-	2b\	Pro-
!LO:TX:t=P:problem:kreska pseudotaktowa	!	!LO:TX:t=P:problem:kreska pseudotaktowa	!	!LO:TX:t=P:problem:kreska pseudotaktowa	!
4BB/	-pter	4d#\	-pter	4b\	-pter
!LO:LB:g=original	!	!	!	!	!
4BB/	Ve-	4d#\	Ve-	4b\	Ve-
4BB/	-ri-	4d#\	-ri-	4b\	-ri-
!LO:TX:t=P:problem:kreska pseudotaktowa	!	!LO:TX:t=P:problem:kreska pseudotaktowa	!	!LO:TX:t=P:problem:kreska pseudotaktowa	!
2E\	-ta-	2e\	-ta-	2b\	-ta-
=77-	=77-	=77-	=77-	=77-	=77-
4BB/	-tem	4d#X\	-te(m)	4b,\	-tem
2GG#X/	et	2e\	et	4b\	et
.	.	.	.	8b\	ma(n)
.	.	.	.	8b\	ſu-
8GG#/	man-	8B\	man-	2b\	-e-
!	!	!LO:SIC:v:t=custos c	!	!	!
!LO:TX:t=P:problem:kreska pseudotaktowa	!	!LO:N:acc=-	!	!	!
8GG#/	ſu-	8dn\	ſu-	.	.
!	!	!LO:LB:g=original	!	!	!
2.AA/	-e-	2.c\	-e-	.	.
.	.	.	.	8a\L	-tu-
.	.	.	.	8g#X\J	.
.	.	.	.	4.a\	-di-
!	!	!LO:TX:t=P:problem:kreska pseudotaktowa	!	!	!
4AA/	-tu-	4c\	-tu-	.	.
!	!	!	!	!LO:TX:t=P:problem:kreska pseudotaktowa	!
.	.	.	.	8a\	-ne(m)
=78-	=78-	=78-	=78-	=78-	=78-
2E\	-di-	2B\	-di-	2g#X/	et
4C-X/	-nem	4A/	-ne	1cc\	iu-
!LO:TX:t=P:problem:kreska pseudotaktowa	!	!LO:TX:t=P:problem:kreska pseudotaktowa	!	!	!
4C-/	et	4A/	et	.	.
1.D\	iu-	2A\	iu-	.	.
!	!	!	!	!LO:TX:t=P:problem:kreska pseudotaktowa	!
.	.	4B\	-ſti-	2b\	-ſti-
!	!	!LO:TX:t=P:problem:kreska pseudotaktowa	!	!	!
.	.	4c\	.	.	.
=79-	=79-	=79-	=79-	=79-	=79-
.	.	2.d\	.	4b\	.
.	.	.	.	8a\L	.
.	.	.	.	8g\J	.
!LO:TX:t=P:problem:kreska pseudotaktowa	!	!	!	!	!
2D\	-ſti-	.	.	4.a\	.
!	!	!LO:TX:t=P:problem:kreska pseudotaktowa	!	!	!
.	.	4d\	-ti-	.	.
!	!	!	!	!LO:TX:t=P:problem:kreska pseudotaktowa	!
.	.	.	.	8a\	-ti-
4GG/	-ti-	4d\	-a	2b\	-am
2D#X\	-am	2B\	et	.	.
!	!	!	!	!LO:TX:t=P:problem:kreska pseudotaktowa	!
!	!	!	!	!LO:SIC:v:t=custos cc	!
.	.	.	.	2r	.
8D#\	et	8B\	man-	.	.
!LO:TX:t=P:problem:kreska pseudotaktowa	!	!LO:TX:t=P:problem:kreska pseudotaktowa	!	!	!
8D#\	man-	8B\	-ſu-	.	.
!	!	!	!	!LO:LB:g=original	!
=80-	=80-	=80-	=80-	=80-	=80-
1.E\	-ſue	2G#X/	-e-	4r	.
.	.	.	.	2cc\	et
.	.	1A\	-tu-	.	.
!	!	!	!	!LO:N:vis=8.	!
.	.	.	.	8cc\	man-
!	!	!	!	!LO:TX:t=P:problem:kreska pseudotaktowa	!
.	.	.	.	8b\	-ſu-
.	.	.	.	2cc\	-e-
!LO:TX:t=P:problem:kreska pseudotaktowa	!	!LO:TX:t=P:problem:kreska pseudotaktowa	!	!	!
2E\	tu-	2G#X/	-di-	4.b\	-tu-
!	!	!	!	!LO:TX:t=P:problem:kreska pseudotaktowa	!
.	.	.	.	8b\	-di-
=81-	=81-	=81-	=81-	=81-	=81-
2AA/	-di-	2c#X\	-nem	2a\	-nem
4GG/	-ne(m)	4e\	et	4b\	et
!	!	!LO:TX:t=P:problem:kreska pseudotaktowa	!	!	!
!LO:TX:t=P:problem:kreska pseudotaktowa	!	!LO:N:acc=-	!	!LO:TX:t=P:problem:kreska pseudotaktowa	!
4AA/	et	4cn\	iu-	4cc\	.
1.BB/	iu-	1.B\	-ſti-	2.g/	iu-
.	.	.	.	8f#X/L	-ſti-
.	.	.	.	8e/J	.
=82-	=82-	=82-	=82-	=82-	=82-
.	.	.	.	2.f#X/	.
!LO:TX:t=P:problem:kreska pseudotaktowa	!	!LO:TX:t=P:problem:kreska pseudotaktowa	!	!	!
2BB/	.	2B\	-ti-	.	.
!	!	!	!	!LO:TX:t=P:problem:kreska pseudotaktowa	!
.	.	.	.	4f#/	-ti-
2E\	-tiam	2B\	-am	4g#X\	-am
.	.	.	.	4g#\	de-
!LO:TX:t=P:problem:kreska pseudotaktowa	!	!	!	!	!
2r	.	2r	.	4a\	-du-
!	!	!	!	!LO:TX:t=P:problem:kreska pseudotaktowa	!
.	.	.	.	4b\	-cet
=83-	=83-	=83-	=83-	=83-	=83-
4r	.	4r	.	2cc\	te
4AA/	de-	4c#X\	de-	.	.
4BB/	-du-	4d\	-du-	2r	.
!LO:TX:t=P:problem:kreska pseudotaktowa	!	!	!	!	!
!LO:SIC:v:t=custos D	!	!LO:TX:t=P:problem:kreska pseudotaktowa	!	!	!
4C#X/	-cet	4e\	-cet	.	.
!LO:LB:g=original	!	!	!	!	!
4D\	te	4f#X\	et	4r	.
*	*	*	*	*	*ij
8r	.	8d\	mi-	4f#X/	de-
!	!	!LO:SIC:v:t=custos c	!	!	!
*	*ij	*	*	*	*
8D\	de-	8A\	-ra-	.	.
!	!	!LO:LB:g=original	!	!	!
4E\	-du-	4.c#\	-bi-	4g/	-du-
!LO:TX:t=P:problem:kreska pseudotaktowa	!	!	!	!LO:TX:t=P:problem:kreska pseudotaktowa	!
4F#X\	-cet	.	.	4a/	-cet
!	!	!LO:TX:t=P:problem:kreska pseudotaktowa	!	!	!
.	.	8c#\	-li-	.	.
=84-	=84-	=84-	=84-	=84-	=84-
4G\	te	4.B\	-ter	4.b\	et
*	*Xij	*	*	*	*
8G\	mi-	.	.	.	.
8D\	-ra-	8B\	de-	8g/	.
!LO:N:acc=-	!	!	!	!	!
4.Fn\	-bi-	4c\	-du-	4a\	te
*	*	*	*	*	*Xij
!	!	!LO:TX:t=P:problem:kreska pseudotaktowa	!	!LO:TX:t=P:problem:kreska pseudotaktowa	!
.	.	4d\	-cet	4b\	.
!LO:TX:t=P:problem:kreska pseudotaktowa	!	!	!	!	!
8F\	-li-	.	.	.	.
4C/	-ter	2e\	te	4cc\	mi-
*	*ij	*	*	*	*
8C/	de-	.	.	8cc\	-ra-
!	!	!	!	!LO:SIC:v:t=custos b	!
8E/	-du-	.	.	8g\	.
!	!	!	!	!LO:LB:g=original	!
!	!	!LO:TX:t=P:problem:kreska pseudotaktowa	!	!	!
4.G\	-cet	2r	.	4.b\	-bi-
!LO:TX:t=P:problem:kreska pseudotaktowa	!	!	!	!LO:TX:t=P:problem:kreska pseudotaktowa	!
8G\	te	.	.	8b\	-li-
=85-	=85-	=85-	=85-	=85-	=85-
4D\	mi-	4r	.	2a\	-ter
8D\	-ra-	8d\	mi-	.	.
8F#X\	-bi-	8A\	-ra-	.	.
4.A\	-li-	4.c\	-bi-	2r	.
!LO:TX:t=P:problem:kreska pseudotaktowa	!	!LO:TX:t=P:problem:kreska pseudotaktowa	!	!	!
8A\	-ter	8c\	-li-	.	.
*	*Xij	*	*	*	*
4E\	.	4B\	-ter	4r	.
*	*	*	*ij	*	*
8r	.	8e\	mi-	4g\	de-
8E\	de-	8B\	-ra-	.	.
4F#X\	-du-	4.d\	-bi-	4a\	-du-
!LO:TX:t=P:problem:kreska pseudotaktowa	!	!	!	!LO:TX:t=P:problem:kreska pseudotaktowa	!
4G#X\	-cet	.	.	4b\	-cet
!	!	!LO:TX:t=P:problem:kreska pseudotaktowa	!	!	!
.	.	8d\	-li-	.	.
=86-	=86-	=86-	=86-	=86-	=86-
4A\	te	2c\	-ter	2cc\	te
*	*	*	*Xij	*	*
8AA/	mi-	.	.	.	.
8C/	-ra-	.	.	.	.
!	!	!LO:TX:t=P:problem:kreska pseudotaktowa	!	!	!
4.E\	-bi-	2r	.	4r	.
.	.	.	.	8ee\	mi-
!LO:TX:t=P:problem:kreska pseudotaktowa	!	!	!	!	!
!LO:SIC:v:t=custos BB	!	!	!	!LO:TX:t=P:problem:kreska pseudotaktowa	!
8E\	-li-	.	.	8b\	-ra-
!LO:LB:g=original	!	!	!	!	!
4BB/	-ter	4r	.	4.dd\	-bi-
8BB/L	dex-	8.B\	dex-	.	.
8C/J	.	.	.	8dd\	-li-
.	.	16B\	-te-	.	.
!	!	!LO:TX:t=P:problem:kreska pseudotaktowa	!	!LO:TX:t=P:problem:kreska pseudotaktowa	!
8.D/	.	2A/	-ra	2a\	-ter
16D/	-te-	.	.	.	.
!LO:TX:t=P:problem:kreska pseudotaktowa	!	!	!	!	!
4C/	-ra	.	.	.	.
=87-	=87-	=87-	=87-	=87-	=87-
2D\	tu-	8F#X/L	tu-	2r	.
.	.	8G/J	.	.	.
.	.	2A/	.	.	.
!LO:TX:t=P:problem:kreska pseudotaktowa	!	!	!	!	!
2E\	.	.	.	8.ee\	Ve-
.	.	.	.	16ee\	-ni
!	!	!LO:TX:t=P:problem:kreska pseudotaktowa	!	!	!
.	.	4G#X/	-a	8a\	ſpon-
!	!	!	!	!LO:TX:t=P:problem:kreska pseudotaktowa	!
.	.	.	.	8b\	-ſa
4AA/	-a	4A\	Ve-	1cc\	chri-
4.A\	Ve-	4.c\	-ni	.	.
!	!	!LO:SIC:v:t=custos G	!	!	!
8A\	-ni	8c\	.	.	.
!	!	!LO:LB:g=original	!	!	!
8E\	ſpon-	8G#/	ſpon-	.	.
!	!	!LO:TX:t=P:problem:kreska pseudotaktowa	!	!	!
8F\	-ſa	8A/	-ſa	.	.
=88-	=88-	=88-	=88-	=88-	=88-
1G\	Chri-	1B\	Chri-	2b\	-ſti
!	!	!	!	!LO:TX:t=P:problem:kreska pseudotaktowa	!
.	.	.	.	2r	.
2D/	-ſti	4A,/	-ſti	1r	.
*	*	*	*ij	*	*
.	.	4.d\	Ve-	.	.
!LO:TX:t=P:problem:kreska pseudotaktowa	!	!	!	!	!
2r	.	.	.	.	.
.	.	8d\	-ni	.	.
.	.	8A\	spon-	.	.
!	!	!LO:TX:t=P:problem:kreska pseudotaktowa	!	!	!
.	.	8B\	-sa	.	.
=89-	=89-	=89-	=89-	=89-	=89-
1r	.	1c\	Chri-	4r	.
*	*	*	*	*	*ij
.	.	.	.	4.a\	Ve-
.	.	.	.	8a\	-ni
.	.	.	.	8e/	spon-
!	!	!	!	!LO:TX:t=P:problem:kreska pseudotaktowa	!
.	.	.	.	8f/	-sa
4r	.	4B\	-sti	2g/	Chri-
4ryy	.	4.G/	ve-	.	.
*	*ij	*	*	*	*
8.E\	Ve-	.	.	4d/	-sti
.	.	8G/	-ni	.	.
16E\	-ni	.	.	.	.
!	!	!	!	!LO:TX:t=P:problem:kreska pseudotaktowa	!
8BB/	ſpon-	8D/	spon-	4.dd\	Ve-
!	!	!LO:TX:t=P:problem:kreska pseudotaktowa	!	!	!
8C/	-ſa	8E/	-sa	.	.
=90-	=90-	=90-	=90-	=90-	=90-
2D/	Chri-	2F/	Chri-	.	.
.	.	.	.	8dd\	-ni
.	.	.	.	8a\	spon-
.	.	.	.	8b\	-sa
!	!	!	!	!LO:LB:g=original	!
!	!	!LO:TX:t=P:problem:kreska pseudotaktowa	!	!LO:TX:t=P:problem:kreska pseudotaktowa	!
4AA/	-ſti	2E/	-sti	2cc\	Chri-
!LO:TX:t=P:problem:kreska pseudotaktowa	!	!	!	!	!
4.A\	Ve-	.	.	.	.
.	.	4r	.	4cc\	-sti
*	*	*	*	*	*Xij
8A\	-ni	.	.	.	.
8E\	ſpon-	4.e\	Ve-	8g\	ſpon-
8F\	-ſa	.	.	8a\	-ſa
!LO:TX:t=P:problem:kreska pseudotaktowa	!	!	!	!	!
2G\	Chri-	.	.	1b\	chri-
.	.	8e\	-ni	.	.
.	.	8B\	spon-	.	.
!	!	!LO:TX:t=P:problem:kreska pseudotaktowa	!	!	!
.	.	8c\	-sa	.	.
=91-	=91-	=91-	=91-	=91-	=91-
4G\	-ſti	2d\	Chri-	.	.
*	*Xij	*	*	*	*
8D\	ſpon-	.	.	.	.
!LO:SIC:v:t=custos F	!	!	!	!	!
8E\	-ſa	.	.	.	.
!LO:LB:g=original	!	!	!	!	!
!LO:TX:t=P:problem:kreska pseudotaktowa	!	!	!	!LO:TX:t=P:problem:kreska pseudotaktowa	!
2F\	Chri-	4A\	-sti	2a\	-ſti
*	*	*	*Xij	*	*
.	.	8A\	ſpon-	.	.
!	!	!LO:TX:t=P:problem:kreska pseudotaktowa	!	!	!
.	.	8B\	-ſa	.	.
4C/	-ſti	4c\	chri-	8.ee\	ac-
.	.	.	.	16dd\	-ci-
8.c\	ac-	4G/	(-sti)	4cc\	-pe
16B\	-ci-	.	.	.	.
!	!	!LO:TX:t=P:problem:kreska pseudotaktowa	!	!	!
4A\	-pe	2r	.	4r	.
*	*ij	*	*	*	*ij
8.B\	ac-	.	.	8.dd\	ac-
!	!	!	!	!LO:TX:t=P:problem:kreska pseudotaktowa	!
16A\	-ci-	.	.	16cc\	-ci-
=92-	=92-	=92-	=92-	=92-	=92-
8G#X\	-pe	1r	.	4b\	-pe
*	*Xij	*	*	*	*Xij
8E\	Co-	.	.	.	.
2A\	-ro-	.	.	16cc\LL	Co-
.	.	.	.	16b\	.
.	.	.	.	16cc\	.
.	.	.	.	16dd\JJ	.
!	!	!	!	!LO:TX:t=P:problem:kreska pseudotaktowa	!
.	.	.	.	2b\	-ro-
!LO:TX:t=P:problem:kreska pseudotaktowa	!	!	!	!	!
4G#X\	.	.	.	.	.
4A\	-nam	8.e\	ac-	4a\	-nam
.	.	16d\	-ci-	.	.
8.A\	ac-	4c\	-pe	8.cc\	ac-
16G#\	-ci-	.	.	16b\	-ci-
*	*	*	*ij	*	*
4F\	-pe	8.d\	ac-	4a\	-pe
.	.	16c\	-ci-	.	.
!	!	!LO:TX:t=P:problem:kreska pseudotaktowa	!	!	!
!	!	!LO:SIC:v:t=custos e	!	!	!
*	*ij	*	*	*	*ij
8.G#\	ac-	4B\	-pe	8.b\	ac-
!	!	!	!	!LO:TX:t=P:problem:kreska pseudotaktowa	!
16F\	-ci-	.	.	16a\	-ci-
!	!	!LO:LB:g=original	!	!	!
=93-	=93-	=93-	=93-	=93-	=93-
4E\	-pe	8.e\	ac-	4g/	-e
.	.	16d\	-ci-	.	.
8.F\	ac-	4.c\	-pe	8.a\	ac-
16E\	-ci-	.	.	16g/	-ci-
4.D\	-e	.	.	4.f/	-pe
*	*Xij	*	*Xij	*	*Xij
.	.	8A\	co-	.	.
.	.	2d\	-ro-	.	.
!LO:TX:t=P:problem:kreska pseudotaktowa	!	!	!	!LO:TX:t=P:problem:kreska pseudotaktowa	!
8F\	Co-	.	.	8a\	Co-
4G\	-ro-	.	.	2e/	-ro-
4A\	.	4c#X\	.	.	.
!	!	!	!	!LO:TX:t=P:problem:kreska pseudotaktowa	!
!LO:TX:t=P:problem:kreska pseudotaktowa	!	!	!	!LO:SIC:v:t=custos b	!
2D/	-nam	4d\	-nam	2f#X/	-nam
.	.	8.d\	ac-	.	.
!	!	!LO:TX:t=P:problem:kreska pseudotaktowa	!	!	!
.	.	16c#\	-ci-	.	.
!	!	!	!	!LO:LB:g=original	!
=94-	=94-	=94-	=94-	=94-	=94-
1r	.	4B\	-pe	8.b\	ac-
.	.	.	.	16a\	-ci-
*	*	*	*ij	*	*
.	.	8.c\	ac-	4g\	-pe
.	.	16B\	-ci-	.	.
.	.	4.A\	-pe	4r	.
*	*	*	*Xij	*	*
.	.	.	.	8r	.
!	!	!LO:TX:t=P:problem:kreska pseudotaktowa	!	!LO:TX:t=P:problem:kreska pseudotaktowa	!
.	.	8c\	co-	8cc\	Co-
2r	.	(4d\	-ro-	2b\	-ro-
.	.	4e\)	.	.	.
!	!	!	!	!LO:TX:t=P:problem:kreska pseudotaktowa	!
8.A\	ac-	4A/	-nam	2a\	-na(m)
16G\	-ci-	.	.	.	.
!LO:TX:t=P:problem:kreska pseudotaktowa	!	!	!	!	!
!LO:SIC:v:t=custos G	!	!	!	!	!
4F#X\	-pe	8.d\	ac-	.	.
!	!	!LO:TX:t=P:problem:kreska pseudotaktowa	!	!	!
.	.	16c\	-ci-	.	.
!LO:LB:g=original	!	!	!	!	!
=95-	=95-	=95-	=95-	=95-	=95-
*	*ij	*	*	*	*
8.G\	ac-	4B\	-pe	8.b\	ac-
16F\	-ci-	.	.	16a\	-ci-
*	*	*	*ij	*	*
4E\	-pe	4.e\	ac-	4g\	-pe
*	*Xij	*	*	*	*ij
4r	.	.	.	8.g/	ac-
.	.	8d\	-ci-	.	.
.	.	.	.	16f#X/	-ci-
8r	.	8c\	-pe	8e/	-pe
*	*	*	*Xij	*	*Xij
!LO:TX:t=P:problem:kreska pseudotaktowa	!	!LO:TX:t=P:problem:kreska pseudotaktowa	!	!LO:TX:t=P:problem:kreska pseudotaktowa	!
8G\	Co-	8B\	co-	8e/	Co-
(4A\	-ro-	(4c\	-ro-	2f#X/	-ro-
4B\)	.	4B\)	.	.	.
4E\	-nam	4G#X,/	-nam	4e/	-nam
!LO:TX:t=P:problem:kreska pseudotaktowa	!	!LO:TX:t=P:problem:kreska pseudotaktowa	!	!LO:TX:t=P:problem:kreska pseudotaktowa	!
4C#X/	q(ua)m	4A/	qua(m)	4a\	qua(m)
=96-	=96-	=96-	=96-	=96-	=96-
4C#X/	ti-	4A/	ti-	4a\	ti-
!	!	!LO:SIC:v:t=custos e	!	!	!
4C#/	-bi	4e\	-bi	4a\	-bi
!	!	!LO:TX:t=P:problem:kreska pseudotaktowa	!	!	!
4.D/	D(o)-	8e\L	Do-	4.a\	D(o)-
.	.	16d\L	.	.	.
.	.	16c#X\JJ	.	.	.
.	.	8.d\	.	.	.
!LO:TX:t=P:problem:kreska pseudotaktowa	!	!	!	!LO:TX:t=P:problem:kreska pseudotaktowa	!
8D/	-(mi)-	.	.	8a\	-(mi)-
!	!	!LO:TX:t=P:problem:kreska pseudotaktowa	!	!	!
.	.	16d\	-mi-	.	.
4AA/	-nus	2c#\	-nus	4a\	-nus
8A\	prae-	.	.	8cc\	prae-
8A\	-pa-	.	.	8cc\	-pa-
!	!	!LO:TX:t=P:problem:kreska pseudotaktowa	!	!	!
8G\	-ra-	2r	.	8b\	-ra-
8E\	-vit	.	.	8g\	-vit
8G\	in	.	.	8b\	in
!	!	!	!	!LO:TX:t=P:problem:kreska pseudotaktowa	!
8G\	ae-	.	.	8b\	ae-
=97-	=97-	=97-	=97-	=97-	=97-
16F\LL	-ter-	1r	.	16a\LL	-ter-
16G\	.	.	.	16b\	.
16F\	.	.	.	16a\	.
16G\JJ	.	.	.	16b\JJ	.
16A\LL	.	.	.	16cc\LL	.
16B\	.	.	.	16dd\	.
16A\	.	.	.	16cc\	.
16B\JJ	.	.	.	16dd\JJ	.
!	!	!	!	!LO:LB:g=original	!
8c\	.	.	.	8ee\	.
8c\	-num	.	.	8ee\	num
*	*	*	*	*	*ij
8C/	in	.	.	8ee\	in
!LO:TX:t=P:problem:kreska pseudotaktowa	!	!	!	!	!
!LO:SIC:v:t=custos D	!	!	!	!LO:TX:t=P:problem:kreska pseudotaktowa	!
8C/	ae-	.	.	8ee\	ae-
!LO:LB:g=original	!	!	!	!	!
16D/LL	-ter-	4r	.	(2dd\	-ter-
16E/	.	.	.	.	.
16D/	.	.	.	.	.
16E/JJ	.	.	.	.	.
16F\LL	.	8d\	prae-	.	.
16G\	.	.	.	.	.
16F\	.	8d\	-pa-	.	.
16G\JJ	.	.	.	.	.
!	!	!	!	!LO:TX:t=P:problem:kreska pseudotaktowa	!
2A\	.	8c\	-ra-	2cc\)	.
.	.	8A\	-vit	.	.
.	.	8.c\	in	.	.
!	!	!LO:TX:t=P:problem:kreska pseudotaktowa	!	!	!
.	.	16c\	ae-	.	.
=98-	=98-	=98-	=98-	=98-	=98-
4E\	-nu(m)	16B\LL	-ter-	4b\	-num
*	*	*	*	*	*Xij
.	.	16c\	.	.	.
.	.	16A\	.	.	.
.	.	16B\JJ	.	.	.
8E\	prae-	16G/LL	.	8g/	'prae-
.	.	16A/	.	.	.
8E\	-pa-	16B/	.	8g/	-pa-
.	.	16c/JJ	.	.	.
8D/	-ra-	8.d\	.	8f/	-ra-
8BB/	-vit	.	.	8d/	-vit
.	.	16d\	-num	.	.
*	*	*	*ij	*	*
8D/	in	8d\	in	8f/	in
!LO:TX:t=P:problem:kreska pseudotaktowa	!	!LO:TX:t=P:problem:kreska pseudotaktowa	!	!LO:TX:t=P:problem:kreska pseudotaktowa	!
8D/	ae-	8d\	ae-	8f/	ae-
16C/LL	-ter-	2c\	-ter-	16e/LL	-ter-
16D/	.	.	.	16f/	.
16C/	.	.	.	16e/	.
16D/JJ	.	.	.	16f/JJ	.
16E/LL	.	.	.	16g/LL	.
16F/	.	.	.	16a/	.
16E/	.	.	.	16g/	.
16F/JJ	.	.	.	16a/JJ	.
!	!	!LO:TX:t=P:problem:kreska pseudotaktowa	!	!	!
8.G\	.	2B\	.	4b\	.
16G\	-nu(m)	.	.	.	.
!	!	!	!	!LO:TX:t=P:problem:kreska pseudotaktowa	!
*	*ij	*	*	*	*
8G\	in	.	.	4b\	-num
!LO:TX:t=P:problem:kreska pseudotaktowa	!	!	!	!	!
8G\	ae-	.	.	.	.
=99-	=99-	=99-	=99-	=99-	=99-
2F\	-ter-	2A/	-num	4r	.
*	*	*	*Xij	*	*ij
.	.	.	.	8a\	prae-
.	.	.	.	8a\	-pa-
!LO:TX:t=P:problem:kreska pseudotaktowa	!	!	!	!	!
2C/	-num	2r	.	8g/	-ra-
*	*Xij	*	*	*	*
.	.	.	.	8e/	-vit
.	.	.	.	8g/	in
.	.	.	.	8g/	ae-
4r	.	4r	.	16f/LL	-ter-
.	.	.	.	16g/	.
.	.	.	.	16f/	.
.	.	.	.	16g/JJ	.
8D/	prae-	8f\	prae-	16a\LL	.
.	.	.	.	16b\	.
8D/	-pa-	8f\	-pa-	16a\	.
!	!	!	!	!LO:SIC:v:t=custos cc	!
.	.	.	.	16b\JJ	.
!	!	!	!	!LO:PB:g=original	!
8C/	-ra-	8e\	-ra-	8cc\	.
8AA/	-vit	8c\	-vit	8cc\	-num
8C/	in	8e\	in	8cc\	in
!LO:SIC:v:t=custos GG	!	!LO:SIC:v:t=custos d	!	!LO:TX:t=P:problem:kreska pseudotaktowa	!
8C/	ae-	8e\	ae-	8cc\	ae-
!LO:LB:g=original	!	!LO:TX:t=P:problem:kreska pseudotaktowa	!	!	!
=100-	=100-	=100-	=100-	=100-	=100-
16GG/LL	-ter-	16d\LL	-ter-	2b\	-ter-
16AA/	.	16e\	.	.	.
16GG/	.	16d\	.	.	.
16AA/JJ	.	16c\JJ	.	.	.
16BB/LL	.	16B\LL	.	.	.
16C/	.	16c\	.	.	.
16BB/	.	16d\	.	.	.
!	!	!LO:TX:t=P:problem:kreska pseudotaktowa	!	!	!
16C/JJ	.	16e\JJ	.	.	.
!	!	!LO:TX:t=P:problem:kreska pseudotaktowa	!	!	!
8.D/	.	2f\	.	4a\	-nu(m)
16D/	-num	.	.	.	.
*	*	*	*	*	*Xij
8D/	in	.	.	8dd\	prae-
!	!	!	!	!LO:TX:t=P:problem:kreska pseudotaktowa	!
8D/	ae-	.	.	8dd\	-pa-
!	!	!LO:TX:t=P:problem:kreska pseudotaktowa	!	!	!
16AA/LL	-ter-	2c\	-num	8.cc\	-ra-
16BB/	.	.	.	.	.
16AA/	.	.	.	.	.
16BB/JJ	.	.	.	16cc\	-vit
16C/LL	.	.	.	8cc\	in
16D/	.	.	.	.	.
16C/	.	.	.	8cc\	ae-
16D/JJ	.	.	.	.	.
*	*	*	*ij	*	*
8E\	.	4e\	in	4b\	-ter-
8E\	-nu(m)	.	.	.	.
!	!	!LO:TX:t=P:problem:kreska pseudotaktowa	!	!	!
*	*ij	*	*	*	*
8F\	in	4c\	ae-	8a\L	.
!LO:TX:t=P:problem:kreska pseudotaktowa	!	!	!	!LO:TX:t=P:problem:kreska pseudotaktowa	!
8F\	ae-	.	.	8b\J	.
=101-	=101-	=101-	=101-	=101-	=101-
!	!	!LO:TX:t=P:problem:kreska pseudotaktowa	!	!	!
0E\	-ter-	2A/	-ter-	4cc\	.
.	.	.	.	8b\L	.
.	.	.	.	8a\J	.
.	.	2.e\	.	4b\	.
!	!	!	!	!LO:TX:t=P:problem:kreska pseudotaktowa	!
.	.	.	.	4cc\	.
.	.	.	.	1b\	.
.	.	8d\L	.	.	.
.	.	8c\J	.	.	.
.	.	2B\	.	.	.
=102-	=102-	=102-	=102-	=102-	=102-
0AA/;	-num	0c#X\;;	-num	0a\;;	-num
=-	=-	=-	=-	=-	=-
*-	*-	*-	*-	*-	*-
!!!system-decoration: [(s1,s2,s3)]
!!!EED: Leszek Kubiak
!!!EST: 2021-04-07
!!!AIN: 1 bass 1 tenor 1 vox
!!!ENC: Andrzej Gręziak
!!!END: 2021-03-27
